X:1
T:Title
%%score { 1 | 2 }
L:1/8
M:2/4
K:D
V:1 treble nm="Grand Piano"
V:2 bass 
V:1
 z2[Q:1/4=82] DE | GF [CF][CE] | D2 EF | [FA][EG] [EG][DF] | [CE]2 [CE][CE] | [DF][DF] [E^G][EG] | %6
 [EA]2 [FB][Fc] | [Fd][B,FB] [B,DF][B,D^G] |[M:3/8] [A,CA]3 |[M:1/4] AA |[M:2/4] ed cB | B2 AA | %12
 [Fd][DF] [DG][DB] |[M:1/4] [DA]2 | [FA][FA] |[M:2/4] [GB][GB] [Ac][Ac] | [Ad]2 [Ac]B | %17
 AF [CG][CE] |[M:3/8] D3 |] %19
V:2
 z2 [D,F,][D,G,D] | [D,B,D][D,A,D] [A,,A,][A,,G,] | [D,F,]2 [D,G,D][D,A,D] | %3
 [A,,A,][A,,A,] [A,,A,][A,,A,] | [A,,A,]2 [A,,A,][A,,A,] | [D,A,][D,A,] [D,B,][D,B,] | %6
 [C,A,]2 [D,A,][C,^A,] | [B,,B,]D, E,E, |[M:3/8] A,,3 |[M:1/4] A,A, | %10
[M:2/4][K:treble] [A,CG][A,DG] [A,EG][A,DG] | [A,CG]2 [A,CG][A,CG] | [D,D][=C,A,] [B,,G,][G,,G,] | %13
[M:1/4] [D,F,]2 | [D,D][D,D] |[M:2/4] [G,D][G,D] [G,E][G,E] | [F,D]2[K:treble] [G,D][G,DG] | %17
 [A,DF][K:bass][A,D] [A,,E,][A,,G,] |[M:3/8] [D,F,]3 |] %19

